X:1
T:Title
%%score { ( 1 3 ) | 2 }
L:1/8
M:4/4
K:Bb
V:1 treble nm="Grand Piano"
V:3 treble 
V:2 bass 
V:1
 z4 z2[Q:1/4=100] FF | [DB]2 [EB]2 [DB]B,DF | [DB]2 [EB]2 [DB]2 [DB][Ec] | [Fd]2 [DB]2 [Ge]2 d2 | %4
 [=EG]2 [Ed]2 c2 FF | [DB]2 [EB]2 [DB]B,DF | [DB]2 [EB]2 [DB]2 [FB][Gc] | z4 c2 c2 |[M:3/4] [DB]6 | %9
[M:1/4] [DB]>[Ec] |[M:4/4] [Fd]2 [DB]>[Ec] d2 [DB]2 | e4 d2 [Fd][Fc] | %12
 [GB]2 [GB][GB] [Gc]2 [GB][B,EG] | [DF]6 [DF][DF] | [EA]2 [FB][FB] c2 F2 | %15
[M:9/8] d3- d [Ge]2- [Ge][Ge][Ge] |[M:4/4] z4 c2 c2 |[M:3/4] [Fd]6 |] %18
V:2
 z4 z2 F,F, | [B,,F,]2 [B,,G,]2 [B,,F,]B,,D,F, | [B,,F,]2 [B,,G,]2 [B,,F,]2 [B,,F,][B,,F,] | %3
 [B,,B,]2 [B,,B,]2 [B,,B,]2 [B,,B,]2 | [C,B,]2 [C,B,]2 [F,A,F]2 [F,A,E][F,E] | %5
 [B,,F,]2 [B,,G,]2 [B,,F,]B,,D,F, | [B,,F,]2 [B,,G,]2 [B,,F,]2 [D,B,][E,B,] | %7
 [F,B,F][F,B,F][F,B,F][F,B,F] .[F,B,E]2 .[F,G,E]2 |[M:3/4] [B,,F,]6 |[M:1/4] [B,,F,]>[B,,F,] | %10
[M:4/4] [B,,B,]2 [B,,F,]>[B,,F,] [B,,B,]2 [B,,F,]2 | [B,G]4 [B,F]2[K:bass] [B,,B,][D,B,] | %12
 [E,E]2 [E,E][E,E] [E,E]2 .[E,E]2 | [B,,B,]6 [B,,B,][B,,B,] | %14
 [C,F,]2 [D,B,][D,B,][K:treble] [F,A,F]2 [A,C]2 | %15
[M:9/8] [B,F]3- [B,F][K:bass] [E,B,]2- [E,B,][E,B,][E,B,] | %16
[M:4/4] [F,B,F][F,B,F][F,B,F][F,B,F] .[F,B,E]2 .[F,G,E]2 |[M:3/4] [B,,F,]6 |] %18
V:3
 x8 | x8 | x8 | x8 | x8 | x8 | x8 | dddd z A, z F, |[M:3/4] x6 |[M:1/4] x2 |[M:4/4] x8 | x8 | x8 | %13
 x8 | x8 |[M:9/8] x9 |[M:4/4] dddd z A, z F, |[M:3/4] x6 |] %18

